images/parking-3.1.svg

<?xml version="1.0" standalone="no"?>
<!DOCTYPE svg PUBLIC "-//W3C//DTD SVG 1.1//EN" "http://www.w3.org/Graphics/SVG/1.1/DTD/svg11.dtd">
<svg width="100%" height="100%" viewBox="0 0 3678 2305" version="1.1" xmlns="http://www.w3.org/2000/svg" xmlns:xlink="http://www.w3.org/1999/xlink" xml:space="preserve" style="fill-rule:evenodd;clip-rule:evenodd;stroke-linejoin:round;stroke-miterlimit:1;">
    <g transform="matrix(1,0,0,1,-11319,-110)">
        <g id="parking-3.1" transform="matrix(2.87248,0,0,2.25,11319.4,110.149)">
            <g transform="matrix(2.08676,0,0,5.15206,-116.151,-2349.03)">
                <g transform="matrix(0.516355,0,0,0.342776,217.275,407.725)">
                    <rect x="676.756" y="269.252" width="4.487" height="305.495" style="fill:black;"/>
                </g>
                <g transform="matrix(0.516355,0,0,0.342776,167.974,407.725)">
                    <rect x="676.756" y="269.252" width="4.487" height="305.495" style="fill:black;"/>
                </g>
                <g transform="matrix(-2.3627e-16,-0.975331,1.46923,-1.56845e-16,-273.988,1214.63)">
                    <rect x="678.386" y="270.211" width="1.228" height="303.577" style="fill:black;"/>
                </g>
                <g transform="matrix(0.516355,0,0,0.342776,118.674,407.725)">
                    <rect x="676.756" y="269.252" width="4.487" height="305.495" style="fill:black;"/>
                </g>
                <g transform="matrix(0.516355,0,0,0.342776,69.3729,407.725)">
                    <rect x="676.756" y="269.252" width="4.487" height="305.495" style="fill:black;"/>
                </g>
                <g transform="matrix(0.516355,0,0,0.342776,20.0721,407.725)">
                    <rect x="676.756" y="269.252" width="4.487" height="305.495" style="fill:black;"/>
                </g>
                <g transform="matrix(0.516355,0,0,0.342776,-29.2287,407.725)">
                    <rect x="676.756" y="269.252" width="4.487" height="305.495" style="fill:black;"/>
                </g>
                <g transform="matrix(0.516355,0,0,0.342776,-78.5295,407.725)">
                    <rect x="676.756" y="269.252" width="4.487" height="305.495" style="fill:black;"/>
                </g>
                <g transform="matrix(0.516355,0,0,0.342776,-127.83,407.725)">
                    <rect x="676.756" y="269.252" width="4.487" height="305.495" style="fill:black;"/>
                </g>
                <g transform="matrix(0.516355,0,0,0.342776,-177.131,407.725)">
                    <rect x="676.756" y="269.252" width="4.487" height="305.495" style="fill:black;"/>
                </g>
                <g transform="matrix(0.516355,0,0,0.342776,-226.432,407.725)">
                    <rect x="676.756" y="269.252" width="4.487" height="305.495" style="fill:black;"/>
                </g>
            </g>
            <g transform="matrix(0.126249,-3.77701e-17,-6.84244e-16,0.161177,324.592,-71.1325)">
                <path d="M1097.11,3478.42c0,-25.127 -20.4,-45.527 -45.527,-45.527l-91.055,0c-25.128,0 -45.528,20.4 -45.528,45.527l0,91.055c0,25.128 20.4,45.528 45.528,45.528l91.055,0c25.127,0 45.527,-20.4 45.527,-45.528l0,-91.055Z" style="fill:rgb(23,16,252);"/>
            </g>
            <g transform="matrix(0.126249,-3.77701e-17,-6.84244e-16,0.161177,633.229,-71.1325)">
                <path d="M1097.11,3478.42c0,-25.127 -20.4,-45.527 -45.527,-45.527l-91.055,0c-25.128,0 -45.528,20.4 -45.528,45.527l0,91.055c0,25.128 20.4,45.528 45.528,45.528l91.055,0c25.127,0 45.527,-20.4 45.527,-45.528l0,-91.055Z" style="fill:rgb(23,16,252);"/>
            </g>
            <g transform="matrix(0.126249,-3.77701e-17,-6.84244e-16,0.161177,941.866,-71.1325)">
                <path d="M1097.11,3478.42c0,-25.127 -20.4,-45.527 -45.527,-45.527l-91.055,0c-25.128,0 -45.528,20.4 -45.528,45.527l0,91.055c0,25.128 20.4,45.528 45.528,45.528l91.055,0c25.127,0 45.527,-20.4 45.527,-45.528l0,-91.055Z" style="fill:rgb(23,16,252);"/>
            </g>
            <g transform="matrix(0.126249,-3.77701e-17,-6.84244e-16,0.161177,17.746,-71.1325)">
                <path d="M1097.11,3478.42c0,-25.127 -20.4,-45.527 -45.527,-45.527l-91.055,0c-25.128,0 -45.528,20.4 -45.528,45.527l0,91.055c0,25.128 20.4,45.528 45.528,45.528l91.055,0c25.127,0 45.527,-20.4 45.527,-45.528l0,-91.055Z" style="fill:rgb(23,16,252);"/>
            </g>
            <g transform="matrix(0.348131,0,0,0.444444,-9618.16,-2.77901e-13)">
                <path d="M27720,1281c76.55,-4.324 215.335,1.837 318.675,-4c206.394,-11.658 591.023,-272.66 886.554,-275c408.703,-3.236 573.084,274.614 878.554,263c327.185,-12.44 540.854,-324.413 1084.55,-337.64" style="fill:none;stroke-width:100px;stroke:rgb(20,169,12);stroke-opacity:0.698039;"/>
            </g>
        </g>
    </g>
</svg>

<?xml version="1.0" standalone="no"?>
<!DOCTYPE svg PUBLIC "-//W3C//DTD SVG 1.1//EN" "http://www.w3.org/Graphics/SVG/1.1/DTD/svg11.dtd">
<svg width="100%" height="100%" viewBox="0 0 3678 2305" version="1.1" xmlns="http://www.w3.org/2000/svg" xmlns:xlink="http://www.w3.org/1999/xlink" xml:space="preserve" style="fill-rule:evenodd;clip-rule:evenodd;stroke-linejoin:round;stroke-miterlimit:1;">
    <g transform="matrix(1,0,0,1,-11319,-110)">
        <g id="parking-3.1" transform="matrix(2.87248,0,0,2.25,11319.4,110.149)">
            <g transform="matrix(2.08676,0,0,5.15206,-116.151,-2349.03)">
                <g transform="matrix(0.516355,0,0,0.342776,217.275,407.725)">
                    <rect x="676.756" y="269.252" width="4.487" height="305.495" style="fill:black;"/>
                </g>
                <g transform="matrix(0.516355,0,0,0.342776,167.974,407.725)">
                    <rect x="676.756" y="269.252" width="4.487" height="305.495" style="fill:black;"/>
                </g>
                <g transform="matrix(-2.3627e-16,-0.975331,1.46923,-1.56845e-16,-273.988,1214.63)">
                    <rect x="678.386" y="270.211" width="1.228" height="303.577" style="fill:black;"/>
                </g>
                <g transform="matrix(0.516355,0,0,0.342776,118.674,407.725)">
                    <rect x="676.756" y="269.252" width="4.487" height="305.495" style="fill:black;"/>
                </g>
                <g transform="matrix(0.516355,0,0,0.342776,69.3729,407.725)">
                    <rect x="676.756" y="269.252" width="4.487" height="305.495" style="fill:black;"/>
                </g>
                <g transform="matrix(0.516355,0,0,0.342776,20.0721,407.725)">
                    <rect x="676.756" y="269.252" width="4.487" height="305.495" style="fill:black;"/>
                </g>
                <g transform="matrix(0.516355,0,0,0.342776,-29.2287,407.725)">
                    <rect x="676.756" y="269.252" width="4.487" height="305.495" style="fill:black;"/>
                </g>
                <g transform="matrix(0.516355,0,0,0.342776,-78.5295,407.725)">
                    <rect x="676.756" y="269.252" width="4.487" height="305.495" style="fill:black;"/>
                </g>
                <g transform="matrix(0.516355,0,0,0.342776,-127.83,407.725)">
                    <rect x="676.756" y="269.252" width="4.487" height="305.495" style="fill:black;"/>
                </g>
                <g transform="matrix(0.516355,0,0,0.342776,-177.131,407.725)">
                    <rect x="676.756" y="269.252" width="4.487" height="305.495" style="fill:black;"/>
                </g>
                <g transform="matrix(0.516355,0,0,0.342776,-226.432,407.725)">
                    <rect x="676.756" y="269.252" width="4.487" height="305.495" style="fill:black;"/>
                </g>
            </g>
            <g transform="matrix(0.126249,-3.77701e-17,-6.84244e-16,0.161177,324.592,-71.1325)">
                <path d="M1097.11,3478.42C1097.11,3453.29 1076.71,3432.89 1051.58,3432.89L960.528,3432.89C935.4,3432.89 915,3453.29 915,3478.42L915,3569.47C915,3594.6 935.4,3615 960.528,3615L1051.58,3615C1076.71,3615 1097.11,3594.6 1097.11,3569.47L1097.11,3478.42Z" style="fill:rgb(23,16,252);"/>
            </g>
            <g transform="matrix(0.126249,-3.77701e-17,-6.84244e-16,0.161177,633.229,-71.1325)">
                <path d="M1097.11,3478.42C1097.11,3453.29 1076.71,3432.89 1051.58,3432.89L960.528,3432.89C935.4,3432.89 915,3453.29 915,3478.42L915,3569.47C915,3594.6 935.4,3615 960.528,3615L1051.58,3615C1076.71,3615 1097.11,3594.6 1097.11,3569.47L1097.11,3478.42Z" style="fill:rgb(23,16,252);"/>
            </g>
            <g transform="matrix(0.126249,-3.77701e-17,-6.84244e-16,0.161177,941.866,-71.1325)">
                <path d="M1097.11,3478.42C1097.11,3453.29 1076.71,3432.89 1051.58,3432.89L960.528,3432.89C935.4,3432.89 915,3453.29 915,3478.42L915,3569.47C915,3594.6 935.4,3615 960.528,3615L1051.58,3615C1076.71,3615 1097.11,3594.6 1097.11,3569.47L1097.11,3478.42Z" style="fill:rgb(23,16,252);"/>
            </g>
            <g transform="matrix(0.126249,-3.77701e-17,-6.84244e-16,0.161177,17.746,-71.1325)">
                <path d="M1097.11,3478.42C1097.11,3453.29 1076.71,3432.89 1051.58,3432.89L960.528,3432.89C935.4,3432.89 915,3453.29 915,3478.42L915,3569.47C915,3594.6 935.4,3615 960.528,3615L1051.58,3615C1076.71,3615 1097.11,3594.6 1097.11,3569.47L1097.11,3478.42Z" style="fill:rgb(23,16,252);"/>
            </g>
            <g transform="matrix(0.348131,0,0,0.444444,-9618.16,-2.77901e-13)">
                <path d="M27720,1281C27796.5,1276.68 27935.3,1282.84 28038.7,1277C28245.1,1265.34 28629.7,1004.34 28925.2,1002C29333.9,998.764 29498.3,1276.61 29803.8,1265C30131,1252.56 30344.6,940.587 30888.3,927.36" style="fill:none;stroke-width:100px;stroke:rgb(20,169,12);stroke-opacity:0.698039;"/>
            </g>
        </g>
    </g>
</svg>
